Sources/FrostedUI/Resources/Icons.xcassets/editProfile12.imageset/edit-profile-12.svg

<svg width="12" height="13" viewBox="0 0 12 13" fill="none" xmlns="http://www.w3.org/2000/svg" data-fui-icon="true">
  <path
    d="M8.62598 6.21387C9.38485 5.455 10.6152 5.455 11.374 6.21387C12.1327 6.97276 12.1328 8.20311 11.374 8.96191L9.12891 11.207C8.68738 11.6486 8.10789 11.9281 7.4873 11.9971L7.28027 12.0186C6.29306 12.1282 5.45867 11.2939 5.56836 10.3066L5.59082 10.1006C5.65977 9.48 5.93838 8.90052 6.37988 8.45898L8.62598 6.21387ZM4.66895 6.5C4.84129 6.5 5.0117 6.50969 5.17969 6.52832C5.59138 6.57398 5.88844 6.94476 5.84277 7.35645C5.79705 7.76801 5.42623 8.06412 5.01465 8.01855C4.90142 8.006 4.78595 8 4.66895 8C2.93321 8 1.5 9.44052 1.5 11.25C1.5 11.6642 1.16421 12 0.75 12C0.335786 12 0 11.6642 0 11.25C0 8.6412 2.07597 6.5 4.66895 6.5ZM10.3135 7.27441C10.1404 7.10133 9.85961 7.10133 9.68652 7.27441L7.44043 9.51953C7.23986 9.72014 7.11344 9.9837 7.08203 10.2656L7.05859 10.4736C7.05538 10.5053 7.08259 10.5318 7.11426 10.5283L7.32129 10.5049C7.60339 10.4735 7.86765 10.3472 8.06836 10.1465L10.3135 7.90137C10.4865 7.72835 10.4864 7.44752 10.3135 7.27441ZM5 0.25C6.51878 0.25 7.75 1.48122 7.75 3C7.75 4.51878 6.51878 5.75 5 5.75C3.48122 5.75 2.25 4.51878 2.25 3C2.25 1.48122 3.48122 0.25 5 0.25ZM5 1.75C4.30964 1.75 3.75 2.30964 3.75 3C3.75 3.69036 4.30964 4.25 5 4.25C5.69036 4.25 6.25 3.69036 6.25 3C6.25 2.30964 5.69036 1.75 5 1.75Z"
    fill="currentColor"
  />
</svg>

<svg xmlns="http://www.w3.org/2000/svg" width="12" height="13" fill="none" data-fui-icon="true" viewBox="0 0 12 13"><path fill="currentColor" d="M8.626 6.214a1.943 1.943 0 1 1 2.748 2.748l-2.245 2.245a2.75 2.75 0 0 1-1.642.79l-.207.022a1.55 1.55 0 0 1-1.712-1.712l.023-.206c.069-.621.347-1.2.789-1.642zM4.669 6.5q.259 0 .51.028a.75.75 0 0 1-.164 1.49A3 3 0 0 0 4.669 8C2.933 8 1.5 9.44 1.5 11.25a.75.75 0 0 1-1.5 0C0 8.641 2.076 6.5 4.669 6.5m5.645.774a.443.443 0 0 0-.627 0L7.44 9.52c-.2.2-.327.464-.358.746l-.023.208a.05.05 0 0 0 .055.054l.207-.023c.282-.032.547-.158.747-.359l2.246-2.245a.444.444 0 0 0 0-.627M5 .25a2.75 2.75 0 1 1 0 5.5 2.75 2.75 0 0 1 0-5.5m0 1.5a1.25 1.25 0 1 0 0 2.5 1.25 1.25 0 0 0 0-2.5"/></svg>
